X: 3
P: Vangpreisen
O: Gudbrandsdal
R: mazurka
Z: John Chambers <jc@trillian.mit.edu>
M: 3/4
L: 1/8
K: D
|: "A7"A>c e<c "G"d>B | G>B "D"B<A A>F |1,3 "A7"A>G E<C C>E | E>G "D"F<D D2 :|2,4 "A7"A>G E<C (3E/G/F/ | "D"D2 D4 :|
|: "D"f>e d2 A2 | f>e "(G)"d<c "G"B2 |1,3 "A7"e>d cE | (3A/B/c/ "D"d2 A2 :|2,4 "A7"e>d c^G | (3A/B/c/ "D"d4 :|
